public/svgs/value/title1-cn.svg

<svg width="1840" height="431" viewBox="0 0 1840 431" fill="none" xmlns="http://www.w3.org/2000/svg">
<path d="M15.3 401V276.8H37.26V381.02H93.42V401H15.3ZM111.234 371.66V306.14C111.234 286.58 121.014 276.8 140.574 276.8H181.794C201.354 276.8 211.134 286.58 211.134 306.14V371.66C211.134 391.22 201.354 401 181.794 401H140.574C121.014 401 111.234 391.22 111.234 371.66ZM133.194 373.28C133.194 378.44 135.834 381.02 141.114 381.02H181.254C186.534 381.02 189.174 378.44 189.174 373.28V304.52C189.174 299.36 186.534 296.78 181.254 296.78H141.114C135.834 296.78 133.194 299.36 133.194 304.52V373.28ZM239.948 401V276.8H263.888L318.968 365.36V276.8H340.928V401H317.168L261.908 312.44V401H239.948ZM369.809 371.66V306.14C369.809 286.58 379.589 276.8 399.149 276.8H451.889L462.509 285.08V296.78H399.689C394.409 296.78 391.769 299.36 391.769 304.52V373.28C391.769 378.44 394.409 381.02 399.689 381.02H444.149V346.64H417.869V326.66H466.109V401H399.149C379.589 401 369.809 391.22 369.809 371.66ZM493.073 401V276.8H576.593V296.78H515.033V326.66H571.193V346.64H515.033V381.02H576.593V401H493.073ZM588.947 281.12L591.827 276.8H610.907L641.687 381.02H645.107L675.887 276.8H695.147L697.847 281.12L661.127 401H625.487L588.947 281.12ZM716.491 401V276.8H738.451V401H716.491ZM758.07 296.78V276.8H858.33V296.78H819.27V401H797.13V296.78H758.07ZM866.154 281.12L868.854 276.8H887.574L916.914 333.14L946.434 276.8H965.334L967.854 281.12L928.074 356.36V401H905.934V356.36L866.154 281.12ZM1029.73 401V276.8H1113.25V296.78H1051.69V332.06H1107.85V352.04H1051.69V401H1029.73ZM1132.89 371.66V276.8H1154.85V373.28C1154.85 378.44 1157.49 381.02 1162.77 381.02H1199.31C1204.59 381.02 1207.23 378.44 1207.23 373.28V276.8H1229.19V371.66C1229.19 391.22 1219.41 401 1199.85 401H1162.23C1142.67 401 1132.89 391.22 1132.89 371.66ZM1258.78 401V276.8H1282.72L1337.8 365.36V276.8H1359.76V401H1336L1280.74 312.44V401H1258.78ZM1390.44 401V276.8H1438.14C1470.54 276.8 1486.74 293.06 1486.74 325.58V352.22C1486.74 384.74 1470.54 401 1438.14 401H1390.44ZM1412.4 381.02H1439.4C1456.32 381.02 1464.78 372.56 1464.78 355.64V322.16C1464.78 305.24 1456.32 296.78 1439.4 296.78H1412.4V381.02Z" fill="black"/>
<path d="M92.2 121H116.8V118.4V101.2H92.2V121ZM165.2 101.2H140.4V118.6V121H165.2V101.2ZM188 140.2H139.2C137.6 152.6 134.2 164.4 128.2 175C146.6 183.8 169.6 189.4 196.6 191.8C191.6 197 185.4 206.8 182.4 213C155.4 209.6 132.6 202.6 114 192C104.4 200.8 90.8 208.2 73 213.4C70 208.2 63 198.6 58.2 193.6C74.2 190 86 184.8 94.6 178.2C84.8 170 76.8 159.8 70 148.4L89.4 142.4C94.2 150.2 100.6 157 108 163C112 155.8 114.2 148.4 115.4 140.2H70.8V81.8H116.8V67.8H66.6V49.4C63 57 59 64.8 54.6 72.4V213.8H32V106.4C26.6 113.2 21.2 119.6 15.6 125.2C13.4 119.4 7 106.6 3 100.8C22 82.8 40.6 54.6 51.4 26.2L73.4 33.4C71.6 37.6 69.8 41.8 68 46.2H116.8V28H140.4V46.2H193.4V67.8H140.4V81.8H188V140.2ZM266.8 131.8H244.4V162.4H266.8V131.8ZM289 111.2V183.2H244.4V199.2H222.8V111.2H289ZM378.2 111.4V166.2C378.2 176.6 376.6 182.6 369.4 186.2C362.6 189.8 353 189.8 340 189.8C339.4 183.4 336.4 174.6 334 168.4C341.4 168.6 349.6 168.6 352 168.6C354.6 168.6 355.4 167.8 355.4 165.6V132.4H327.8V213.8H304.4V111.4H378.2ZM271 78.4H327.4C317.6 71.8 309 64.6 301.2 56.6C292.2 64.4 281.8 71.8 271 78.4ZM301.2 23.4L320.2 37C319 38.6 317.6 40.2 316.2 41.8C334.2 58.8 364.2 72.8 395.4 79.2C389.4 84.6 382.2 94.8 378.4 101.8C365.8 98.2 353.4 93.4 342 87.2V99.6H256.4V86.6C244 93.2 231 98.6 218.2 102.8C215.2 95.8 209.8 86.2 204.4 79.8C242.4 71 282 48.4 301.2 23.4ZM454 151.6L455.8 169.4C439.2 173.2 421.8 177.2 407.4 180.6L403.4 162C416.8 159.8 435.2 155.8 454 151.6ZM455.2 33.6H475.6C474.2 61.6 472 96.8 469.2 118.8H482.8C482.8 118.8 482.6 124.8 482.4 127.4C480 177 477.4 196.6 471.4 203.4C467.2 208.6 462.6 210.2 456.2 211C451 211.6 441.6 211.6 431.8 211.2C431.8 205.4 429.4 197.6 426 192.2C434.8 193 443.2 193.2 447 193.2C450.2 193.2 451.8 192.8 453.8 190.8C457.4 186.8 459.8 172.4 461.6 137.4H410.8C413.2 119.4 415.6 89.6 416.4 67L436.8 68.2C436 84.2 434.6 103.2 433 119H449C451.2 101.8 453.2 77 454.4 54.2H410.8V34.2H455.2V33.6ZM512 184.8H593.4V206.2H489.8V37H590V58.6H512V163.8C522.6 152.2 532.4 137.2 541.2 120.6C532.2 106.8 522.6 92.8 513.8 80.8L530.6 70C537.4 78.8 544.2 88.4 551.4 98.4C555.8 87.8 559.6 77.2 562.6 66.2L584.2 71.6C579.2 87.8 572.8 104.2 565.6 119.4C576 135.2 584.8 150.4 590.2 162.6L571.2 175.6C567.4 166.2 561.4 154.4 554.2 142.2C546.4 156.4 538 169.2 529.2 179.6C525.4 175.6 517.2 168.2 512 164.4V184.8ZM694.8 42V63H616.6V42H694.8ZM746.6 69.8H790C790 69.8 789.8 77.6 789.8 80.6C787.8 161.2 785.6 190.4 779 199.6C774.2 206.6 769.6 208.6 762.4 210C756.2 211 746 211 735.6 210.6C735.2 203.8 732.6 194 728.6 187.4C738 188.2 746.6 188.2 750.8 188.2C754.2 188.2 756.2 187.6 758.2 184.8C762.6 179.2 764.6 155.2 766.4 92.6H745.8C743 142.8 734.6 185.2 706.4 213.2C702.6 207.2 694.6 198.8 688.8 195C694.6 189.2 699.6 182.6 703.8 175.8L684.8 181.6C684.2 178.8 683.4 175.6 682.4 172.2C633 185 624.4 188 618.6 191.6C617.4 187 613.6 176.2 611 170.4C614.8 169 617.6 164.4 620.8 157.2C623.4 151.2 630.4 131 634.8 109.8H610.2V88.2H698.4V109.8H659.2C655 126.8 649 144.8 642.4 160.2L676.4 152.4C673.4 143.8 670.4 135.2 667.4 127.6L686.4 122.4C693.4 138.6 701.4 159.6 705 173.6C716.6 151.8 721 124.2 722.4 92.6H700.8V69.8H723.2C723.4 57.2 723.4 43.8 723.4 30.2H747C747 43.8 746.8 57 746.6 69.8Z" fill="#BB1212"/>
</svg>

<svg xmlns="http://www.w3.org/2000/svg" width="1840" height="431" fill="none" viewBox="0 0 1840 431"><path fill="#000" d="M15.3 401V276.8h21.96v104.22h56.16V401zm95.934-29.34v-65.52q0-29.34 29.34-29.34h41.22q29.34 0 29.34 29.34v65.52q0 29.34-29.34 29.34h-41.22q-29.34 0-29.34-29.34m21.96 1.62q0 7.74 7.92 7.74h40.14q7.92 0 7.92-7.74v-68.76q0-7.74-7.92-7.74h-40.14q-7.92 0-7.92 7.74zM239.948 401V276.8h23.94l55.08 88.56V276.8h21.96V401h-23.76l-55.26-88.56V401zm129.861-29.34v-65.52q0-29.34 29.34-29.34h52.74l10.62 8.28v11.7h-62.82q-7.92 0-7.92 7.74v68.76q0 7.74 7.92 7.74h44.46v-34.38h-26.28v-19.98h48.24V401h-66.96q-29.34 0-29.34-29.34M493.073 401V276.8h83.52v19.98h-61.56v29.88h56.16v19.98h-56.16v34.38h61.56V401zm95.874-119.88 2.88-4.32h19.08l30.78 104.22h3.42l30.78-104.22h19.26l2.7 4.32L661.127 401h-35.64zM716.491 401V276.8h21.96V401zm41.579-104.22V276.8h100.26v19.98h-39.06V401h-22.14V296.78zm108.084-15.66 2.7-4.32h18.72l29.34 56.34 29.52-56.34h18.9l2.52 4.32-39.78 75.24V401h-22.14v-44.64zM1029.73 401V276.8h83.52v19.98h-61.56v35.28h56.16v19.98h-56.16V401zm103.16-29.34V276.8h21.96v96.48q0 7.74 7.92 7.74h36.54q7.92 0 7.92-7.74V276.8h21.96v94.86q0 29.34-29.34 29.34h-37.62q-29.34 0-29.34-29.34M1258.78 401V276.8h23.94l55.08 88.56V276.8h21.96V401H1336l-55.26-88.56V401zm131.66 0V276.8h47.7q48.6 0 48.6 48.78v26.64q0 48.78-48.6 48.78zm21.96-19.98h27q25.38 0 25.38-25.38v-33.48q0-25.38-25.38-25.38h-27z"/><path fill="#bb1212" d="M92.2 121h24.6v-19.8H92.2zm73-19.8h-24.8V121h24.8zm22.8 39h-48.8c-1.6 12.4-5 24.2-11 34.8 18.4 8.8 41.4 14.4 68.4 16.8-5 5.2-11.2 15-14.2 21.2q-40.5-5.1-68.4-21c-9.6 8.8-23.2 16.2-41 21.4-3-5.2-10-14.8-14.8-19.8 16-3.6 27.8-8.8 36.4-15.4-9.8-8.2-17.8-18.4-24.6-29.8l19.4-6c4.8 7.8 11.2 14.6 18.6 20.6 4-7.2 6.2-14.6 7.4-22.8H70.8V81.8h46v-14H66.6V49.4c-3.6 7.6-7.6 15.4-12 23v141.4H32V106.4c-5.4 6.8-10.8 13.2-16.4 18.8-2.2-5.8-8.6-18.6-12.6-24.4 19-18 37.6-46.2 48.4-74.6l22 7.2c-1.8 4.2-3.6 8.4-5.4 12.8h48.8V28h23.6v18.2h53v21.6h-53v14H188zm78.8-8.4h-22.4v30.6h22.4zm22.2-20.6v72h-44.6v16h-21.6v-88zm89.2.2v54.8c0 10.4-1.6 16.4-8.8 20-6.8 3.6-16.4 3.6-29.4 3.6-.6-6.4-3.6-15.2-6-21.4 7.4.2 15.6.2 18 .2 2.6 0 3.4-.8 3.4-3v-33.2h-27.6v81.4h-23.4V111.4zM271 78.4h56.4c-9.8-6.6-18.4-13.8-26.2-21.8-9 7.8-19.4 15.2-30.2 21.8m30.2-55 19 13.6c-1.2 1.6-2.6 3.2-4 4.8 18 17 48 31 79.2 37.4-6 5.4-13.2 15.6-17 22.6-12.6-3.6-25-8.4-36.4-14.6v12.4h-85.6v-13c-12.4 6.6-25.4 12-38.2 16.2-3-7-8.4-16.6-13.8-23 38-8.8 77.6-31.4 96.8-56.4M454 151.6l1.8 17.8c-16.6 3.8-34 7.8-48.4 11.2l-4-18.6c13.4-2.2 31.8-6.2 50.6-10.4m1.2-118h20.4c-1.4 28-3.6 63.2-6.4 85.2h13.6s-.2 6-.4 8.6c-2.4 49.6-5 69.2-11 76-4.2 5.2-8.8 6.8-15.2 7.6-5.2.6-14.6.6-24.4.2 0-5.8-2.4-13.6-5.8-19 8.8.8 17.2 1 21 1 3.2 0 4.8-.4 6.8-2.4 3.6-4 6-18.4 7.8-53.4h-50.8c2.4-18 4.8-47.8 5.6-70.4l20.4 1.2c-.8 16-2.2 35-3.8 50.8h16c2.2-17.2 4.2-42 5.4-64.8h-43.6v-20h44.4zM512 184.8h81.4v21.4H489.8V37H590v21.6h-78v105.2c10.6-11.6 20.4-26.6 29.2-43.2-9-13.8-18.6-27.8-27.4-39.8L530.6 70c6.8 8.8 13.6 18.4 20.8 28.4 4.4-10.6 8.2-21.2 11.2-32.2l21.6 5.4c-5 16.2-11.4 32.6-18.6 47.8 10.4 15.8 19.2 31 24.6 43.2l-19 13c-3.8-9.4-9.8-21.2-17-33.4-7.8 14.2-16.2 27-25 37.4-3.8-4-12-11.4-17.2-15.2zM694.8 42v21h-78.2V42zm51.8 27.8H790s-.2 7.8-.2 10.8c-2 80.6-4.2 109.8-10.8 119-4.8 7-9.4 9-16.6 10.4-6.2 1-16.4 1-26.8.6-.4-6.8-3-16.6-7-23.2 9.4.8 18 .8 22.2.8 3.4 0 5.4-.6 7.4-3.4 4.4-5.6 6.4-29.6 8.2-92.2h-20.6c-2.8 50.2-11.2 92.6-39.4 120.6-3.8-6-11.8-14.4-17.6-18.2 5.8-5.8 10.8-12.4 15-19.2l-19 5.8c-.6-2.8-1.4-6-2.4-9.4-49.4 12.8-58 15.8-63.8 19.4-1.2-4.6-5-15.4-7.6-21.2 3.8-1.4 6.6-6 9.8-13.2 2.6-6 9.6-26.2 14-47.4h-24.6V88.2h88.2v21.6h-39.2c-4.2 17-10.2 35-16.8 50.4l34-7.8c-3-8.6-6-17.2-9-24.8l19-5.2c7 16.2 15 37.2 18.6 51.2 11.6-21.8 16-49.4 17.4-81h-21.6V69.8h22.4c.2-12.6.2-26 .2-39.6H747c0 13.6-.2 26.8-.4 39.6"/></svg>
